img/svg/employment4.svg

<svg width="80" height="80" viewBox="0 0 80 80" fill="none" xmlns="http://www.w3.org/2000/svg">
<circle cx="40" cy="40" r="40" fill="#006AFF"/>
<path d="M36.5337 46.1333L30.4003 40L36.5337 33.8667L34.667 32L26.667 40L34.667 48L36.5337 46.1333ZM43.467 46.1333L49.6003 40L43.467 33.8667L45.3337 32L53.3337 40L45.3337 48L43.467 46.1333Z" fill="white"/>
</svg>

<svg width="80" height="80" viewBox="0 0 80 80" fill="none" xmlns="http://www.w3.org/2000/svg"><circle cx="40" cy="40" r="40" fill="#006AFF"/><path d="M36.534 46.133L30.4 40l6.134-6.133L34.667 32l-8 8 8 8 1.867-1.867zm6.933 0L49.6 40l-6.133-6.133L45.334 32l8 8-8 8-1.867-1.867z" fill="#fff"/></svg>
